!!!AGN: Motet
!!!SCT: Sherr (1992)
!!!voices: 4
!!!COM: Maistre Jan
!!!OTL: O benignissime Domine Jesu
**kern	**kern	**kern	**kern
*part4	*part3	*part2	*part1
*staff4	*staff3	*staff2	*staff1
*I"Bassus	*I"Tenor	*I"Altus	*I"Superius
*I'B	*I'T	*I'A	*I'S
*clefF4	*clefGv2	*clefGv2	*clefG2
*k[]	*k[]	*k[]	*k[]
*C:	*C:	*C:	*C:
*M2/1	*M2/1	*M2/1	*M2/1
*met(C|)	*met(C|)	*met(C|)	*met(C|)
!!section: Prima pars: O benignissime Domine Jesu
!!!OMD: Prima pars: O benignissime Domine Jesu
0r	0r	0r	1r
.	.	.	[1e
=1	=1	=1	=1
0r	0r	0r	0e_
=2	=2	=2	=2
0r	0r	1r	1e]
.	.	[1A	[1a
=3	=3	=3	=3
0r	0r	0A_	2a]
.	.	.	2a
.	.	.	2.a
.	.	.	4b
=4	=4	=4	=4
0r	1r	1A]	1cc
.	[1D	[1d	[1a
=5	=5	=5	=5
0r	0D_	2d]	1a]
.	.	2d	.
.	.	2.d	1f
.	.	4e	.
=6	=6	=6	=6
1r	1D]	1f	1d
[1AA	[1A	[1e	1r
=7	=7	=7	=7
0AA_	2A]	1e]	0a
.	2A	.	.
.	2.A	1c	.
.	4B	.	.
=8	=8	=8	=8
1AA]	1c	0A	1e
[1D	[1d	.	2.f
.	.	.	4g
=9	=9	=9	=9
2D]	1d]	1r	1.a
2D	.	.	.
2D	1B	[1d	.
2E	.	.	2g
=10	=10	=10	=10
1F	1A	2d]	2.f
.	.	2c	.
.	.	.	4e
[1G	1r	2.B	1d
.	.	4A	.
=11	=11	=11	=11
1G]	1.d	1B	0r
1E	.	1G	.
.	2c	.	.
=12	=12	=12	=12
1D	1B	1d	1.dd
1r	1A	2.e	.
.	.	.	2cc
.	.	4f	.
=13	=13	=13	=13
1r	1G	4g	1b
.	.	4a	.
.	.	1g	.
[1D	1d	.	1a
.	.	[2f	.
=14	=14	=14	=14
2D]	0B	2f]	2d
2C	.	2e	2e
1D	.	1d	1f
=15	=15	=15	=15
0AA;	0A;	0c#X	0e;
=16	=16	=16	=16
0r	0r	1r	1e
.	.	1G	[1g
=17	=17	=17	=17
0r	0r	1.c	2g]
.	.	.	2f
.	.	.	2e
.	.	2d	2d
=18	=18	=18	=18
0r	0r	2e	1g
.	.	2c	.
.	.	1f	[1a
=19	=19	=19	=19
1r	1A	0e	1a]
1C	[1c	.	1g
=20	=20	=20	=20
1.F	2c]	0r	1r
.	2B	.	.
.	2A	.	1d
2G	2G	.	.
=21	=21	=21	=21
2A	1c	1r	1.f
2F	.	.	.
1B-i	[1d	2r	.
.	.	2d	2g
=22	=22	=22	=22
0A	1d]	0e	1a
.	1c	.	1a
=23	=23	=23	=23
0E	0B	0e	2a
.	.	.	4g#i
.	.	.	4f#i
.	.	.	1g#i
=24	=24	=24	=24
1r	0A	1.e	0a
[1A	.	.	.
.	.	2d	.
=25	=25	=25	=25
2A]	0r	2c	0r
2G	.	2.d	.
2F	.	.	.
.	.	4c	.
2E	.	[2c	.
=26	=26	=26	=26
1D	1r	2c]	0r
.	.	2B	.
1C	[1e	1c	.
=27	=27	=27	=27
1G	2e]	1r	0r
.	2d	.	.
1E	2c	[1g	.
.	2B	.	.
=28	=28	=28	=28
0r	1A	2g]	1.cc
.	.	2f	.
.	1G	2e	.
.	.	2d	2b
=29	=29	=29	=29
0r	1r	2c	2a
.	.	1e	2g
.	1D	.	1f
.	.	2d	.
=30	=30	=30	=30
0AA	1A	1e	1e
.	[1A	[1c	[1e
=31	=31	=31	=31
1AA	1A]	1c]	2e]
.	.	.	2f
[1E	2.G	1B	[1g
.	4A	.	.
=32	=32	=32	=32
1E]	2B	2G	1g]
.	2c	1g	.
1D	[1d	.	1a
.	.	2f#i	.
=33	=33	=33	=33
1.G	0d]	1g	1b
.	.	1r	2g
2F	.	.	2a
=34	=34	=34	=34
2E	1r	1.g	1b
2.G	.	.	.
.	[1d	.	1r
4F	.	.	.
2D	.	2f	.
=35	=35	=35	=35
1A	2d]	1e	1.a
.	2c	.	.
1r	1B	[1d	.
.	.	.	2g
=36	=36	=36	=36
0r	1r	2d]	2f
.	.	4c	4e
.	.	4B	4d
.	1A	1c	2e
.	.	.	[2f
=37	=37	=37	=37
1D	1.A	1F	4f]
.	.	.	4e
.	.	.	4f
.	.	.	4g
[1F	.	1r	1a
.	2B	.	.
=38	=38	=38	=38
2F]	2c	0r	0r
2E	2c	.	.
2D	1d	.	.
2D	.	.	.
=39	=39	=39	=39
1AA	0c	1r	1e
1AA	.	1A	[1e
=40	=40	=40	=40
1AA	2.A	1.c	2e]
.	.	.	2f
.	8GL	.	.
.	8FJ	.	.
1r	1E	.	2g
.	.	2B	2g
=41	=41	=41	=41
1AA	0E	2A	1a
.	.	2A	.
[1C	.	2G	2.e
.	.	[2c	.
.	.	.	4f
=42	=42	=42	=42
2C]	1r	4c]	4g
.	.	4B	4e
2D	.	1A	2.f
2E	1c	.	.
.	.	.	4e
2E	.	2G	[2e
=43	=43	=43	=43
1F	2B	1A	2e]
.	2A	.	2d
2E	2G	2B	1e
2C	2A	[2c	.
=44	=44	=44	=44
1D	1F	2c]	1f
.	.	2B	.
[1C	1G	[1c	[1e
=45	=45	=45	=45
1C]	2A	0c]	1e]
.	2G	.	.
[1AA	2.A	.	1r
.	4B	.	.
=46	=46	=46	=46
1AA]	0c	1r	0e
1r	.	[1A	.
=47	=47	=47	=47
0r	0r	1A]	1f
.	.	1B	[1g
=48	=48	=48	=48
0r	0r	1.c	2g]
.	.	.	2g
.	.	.	1a
.	.	2d	.
=49	=49	=49	=49
1r	0E	1e	2.g
.	.	.	4f
[1AA	.	1A	4e
.	.	.	4d
.	.	.	2e
=50	=50	=50	=50
1AA]	1F	0r	1d
1BB	[1G	.	1r
=51	=51	=51	=51
1.C	2G]	0r	1.e
.	2G	.	.
.	1A	.	.
2D	.	.	2f
=52	=52	=52	=52
1E	1G	1B	1g
1C	1r	[1c	1g
=53	=53	=53	=53
0F	1r	2c]	0a
.	.	2A	.
.	1A	2.c	.
.	.	4d	.
=54	=54	=54	=54
1E	1B	0e	1g
1A	1c	.	1r
=55	=55	=55	=55
2G	2B	0r	0r
2F	2A	.	.
2G	1B	.	.
2G	.	.	.
=56	=56	=56	=56
1A	1A	0e	1r
1r	1r	.	1g
=57	=57	=57	=57
0r	0r	2d	2f
.	.	2c	2e
.	.	2d	2f
.	.	2d	2f
=58	=58	=58	=58
1AA	1c	0e	2.e
.	.	.	4f
1E	2B	.	2g
.	2A	.	[2a
=59	=59	=59	=59
1E	2B	1e	2a]
.	2B	.	2g#i
[1F	1A	2d	1a
.	.	2c	.
=60	=60	=60	=60
2F]	1A	1.d	0r
2D	.	.	.
[1E	1e	.	.
.	.	2c	.
=61	=61	=61	=61
1E]	1.e	2B	1e
.	.	2G	.
[1D	.	1d	1a
.	[2f	.	.
=62	=62	=62	=62
2D]	2f]	0r	1a
4C	2d	.	.
4BB	.	.	.
[1AA	2e	.	[1cc
.	2A	.	.
=63	=63	=63	=63
1AA]	2.c	1A	2cc]
.	.	.	2a
.	8BL	.	.
.	8AJ	.	.
1r	2.G	1d	1b
.	4F	.	.
=64	=64	=64	=64
0r	0D	1d	[0a
.	.	[1f	.
=65	=65	=65	=65
1D	1.d	2f]	1a]
.	.	2d	.
1A	.	[1e	[1a
.	4c	.	.
.	4B	.	.
=66	=66	=66	=66
1A	1c	1e]	2a]
.	.	.	2g
[1B	1d	2.d	2.f
.	.	8eL	4e
.	.	8fJ	.
=67	=67	=67	=67
2B]	2G	1.g	1d
2G	1d	.	.
[1A	.	.	1r
.	4c	4f	.
.	4B	4e	.
=68	=68	=68	=68
1A]	1c	1f	1a
[1G	1d	1g	1b
=69	=69	=69	=69
1G]	1.B	1d	1.dd
1r	.	2d	.
.	2c	[2g	2cc
=70	=70	=70	=70
0D	2.d	2g]	1a
.	.	2f	.
.	4e	.	.
.	2f	2d	2b-X
.	[2d	[2f	2a
=71	=71	=71	=71
1D	4d]	4f]	2.f
.	4c	4e	.
.	2B	2d	.
.	.	.	4g
[1F	[1A	[1c	[1a
=72	=72	=72	=72
2F]	1A]	1c]	2a]
2E	.	.	2g
2D	1A	1r	2f
2C	.	.	[2e
=73	=73	=73	=73
1D	1F	1A	2e]
.	.	.	2d
1r	[1E	1B	1e
=74	=74	=74	=74
0r	0E_	1.c	0e
.	.	4B	.
.	.	4A	.
=75	=75	=75	=75
1r	1E]	2B	1e
.	.	2c	.
[1D	1r	1d	[1f
=76	=76	=76	=76
1D]	0r	1A	2f]
.	.	.	4e
.	.	.	4d
1D	.	[1d	2.f
.	.	.	4g
=77	=77	=77	=77
1.F	0r	2d]	2a
.	.	2c	2f
.	.	1f	1a
4E	.	.	.
4D	.	.	.
=78	=78	=78	=78
2E	1r	2e	1r
2F	.	2.d	.
1G	[1B	.	1g
.	.	4c	.
.	.	2d	.
=79	=79	=79	=79
1E	1B]	1e	0g
[1G	1B	2.d	.
.	.	4c	.
=80	=80	=80	=80
1G]	1.d	4B	1g
.	.	4A	.
.	.	1B	.
[1F	.	.	[1a
.	4c	4A	.
.	4B	4G	.
=81	=81	=81	=81
1F]	2c	1A	1a]
.	2d	.	.
1E	1e	2B	[1g
.	.	2c	.
=82	=82	=82	=82
0r	1.d	1G	2g]
.	.	.	2f
.	.	[1A	[1e
.	4c#i	.	.
.	4B	.	.
=83	=83	=83	=83
1AA	1c#i	1A]	1e]
[1D	2.d	1A	1r
.	4c	.	.
=84	=84	=84	=84
1D]	2B	1.d	0r
.	4A	.	.
.	4G	.	.
1D	1A	.	.
.	.	2c	.
=85	=85	=85	=85
1E	1r	1B	0r
[1C	1E	2.c	.
.	.	4d	.
=86	=86	=86	=86
2C]	0G	2e	0cc
2BB	.	2d	.
[1AA	.	2.c	.
.	.	4B	.
=87	=87	=87	=87
1AA]	1F	1A	1cc
1GG	1G	[1d	1b
=88	=88	=88	=88
1D	1.F	2d]	1.a
.	.	4c	.
.	.	4B	.
1r	.	1c	.
.	2E	.	2g
=89	=89	=89	=89
1r	2D	[0d	2f
.	2G	.	2.g
1D	1A	.	.
.	.	.	8f#iL
.	.	.	8eJ
.	.	.	2f#i
=90	=90	=90	=90
1.G	2.B	1d]	0g
.	4c	.	.
.	2d	1r	.
2G	[2e	.	.
=91	=91	=91	=91
1A	4e]	1d	0r
.	4d	.	.
.	4c	.	.
.	4B	.	.
[1F	2c	[1f	.
.	[2d	.	.
=92	=92	=92	=92
2F]	4d]	1f]	0r
.	4c	.	.
2E	1c	.	.
1D	.	1f	.
.	2B	.	.
=93	=93	=93	=93
[0C	2.c	1e	1g
.	4B	.	.
.	2A	2.c	[1cc
.	4G	.	.
.	4F	4d	.
=94	=94	=94	=94
0C]	1G	4e	1cc]
.	.	4f	.
.	.	2.g	.
.	1r	.	1cc
.	.	4f	.
.	.	4e	.
.	.	4d	.
=95	=95	=95	=95
1r	1G	2e	1b
.	.	2d	.
1C	[1c	1e	2g
.	.	.	[2cc
=96	=96	=96	=96
0F	1c]	1.f	2cc]
.	.	.	2b
.	1c	.	2.a
.	.	4e	.
.	.	4d	4g
=97	=97	=97	=97
1F	1A	2c	1f
.	.	2d	.
1E	2B	1e	[1g
.	[2c	.	.
=98	=98	=98	=98
2C	2c]	1r	2g]
1G	2B	.	2d
.	2A	2r	1d
2F	2A	2A	.
=99	=99	=99	=99
2.E	0G	1B	1.e
4D	.	.	.
[1C	.	[1c	.
.	.	.	4d
.	.	.	4c
=100	=100	=100	=100
0C]	1.c	2c]	2.e
.	.	4B	.
.	.	4A	4f
.	.	2G	1g
.	2c	2A	.
=101	=101	=101	=101
1.G	2.d	1B	0r
.	4c	.	.
.	2B	[1d	.
2D	[2A	.	.
=102	=102	=102	=102
1D	2A]	2d]	1.a
.	2d	1A	.
1F	2c	.	.
.	[2A	[2d	2f
=103	=103	=103	=103
0E	2A]	2d]	1g
.	4G	4c#i	.
.	4F	4B	.
.	1G	1c#i	1e
=104	=104	=104	=104
0D	1A	1d	2f
.	.	.	2d
.	[1d	1A	2.f
.	.	.	4g
=105	=105	=105	=105
1r	2d]	0r	4a
.	.	.	4b
.	2c	.	1cc
[1G	1d	.	.
.	.	.	2b
=106	=106	=106	=106
2G]	2B	0r	1g
2E	1c	.	.
1F	.	.	[1a
.	[2A	.	.
=107	=107	=107	=107
1D	2A]	1.d	2a]
.	2.d	.	4g
.	.	.	4f
1G	.	.	1g
.	4c	.	.
.	4d	2B	.
.	4e	.	.
=108	=108	=108	=108
1.F	1f	1c	1a
.	1r	2A	1r
2E	.	2c	.
=109	=109	=109	=109
2D	1.d	2B	0r
2C	.	1A	.
1BB	.	.	.
.	2B	2G#i	.
=110	=110	=110	=110
1AA	1c	2A	1.a
.	.	2.e	.
1D	1A	.	.
.	.	8dL	.
.	.	8cJ	.
.	.	2d	2f
=111	=111	=111	=111
1C	1.c	1e	1g
2r	.	2A	2e
2GG	2B	[2d	2g
=112	=112	=112	=112
1D	2A	2d]	2f
.	2G	4c	1e
.	.	4B	.
1D	1F	[1A	.
.	.	.	2d
=113	=113	=113	=113
1AA	0E	1A]	1e
1C	.	1G	2r
.	.	.	2e
=114	=114	=114	=114
2D	0r	2r	1a
2.F	.	2A	.
.	.	1d	[1a
4E	.	.	.
4D	.	.	.
4C	.	.	.
=115	=115	=115	=115
0D	0r	1.d	1a]
.	.	.	2d
.	.	2A	2f
=116	=116	=116	=116
1C	1r	1c	2g
.	.	.	2.a
1r	2r	2d	.
.	.	.	4g
.	2D	[2f	4a
.	.	.	4b
=117	=117	=117	=117
0r	1A	2f]	2cc
.	.	4e	1dd
.	.	4d	.
.	1A	1e	.
.	.	.	2cc
=118	=118	=118	=118
1r	2D	1d	2a
.	2G	.	2b
2r	2A	1c	2.cc
2C	[2c	.	.
.	.	.	4b
=119	=119	=119	=119
2D	4c]	2r	4a
.	4B	.	4g
1F	4A	2c	1f
.	4G	.	.
.	2A	2d	.
2E	[2G	2c	2g
=120	=120	=120	=120
1D	2G]	1A	2.a
.	2F	.	.
.	.	.	8gL
.	.	.	8fJ
1C	[1G	1c	[1e
=121	=121	=121	=121
1E	1G]	2.B	1e]
.	.	4A	.
[1E	1r	2B	1r
.	.	2c	.
=122	=122	=122	=122
2E]	0r	1B	2r
2D	.	.	2d
1C	.	2A	2e
.	.	2G	[2g
=123	=123	=123	=123
1D	1A	1d	2g]
.	.	.	2f
1r	2B	2G	2e
.	[2d	2B	2d
=124	=124	=124	=124
1AA	2d]	1A	1e
.	2c	.	.
2D	1B	1r	1d
2E	.	.	.
=125	=125	=125	=125
1F	2A	1r	0r
.	1c	.	.
2E	.	2r	.
2G	[2B	2G	.
=126	=126	=126	=126
1F	2B]	2.c	1f
.	2A	.	.
.	.	4d	.
2.E	1B	1e	2.g
4F	.	.	4a
=127	=127	=127	=127
2G	1r	2d	2b-i
2A	.	2c	1a
1E	2r	1B	.
.	2E	.	2g
=128	=128	=128	=128
1r	2.F	2A	1a
.	.	2.d	.
.	4G	.	.
1AA	1A	.	1e
.	.	8cL	.
.	.	8BJ	.
.	.	[2c	.
=129	=129	=129	=129
2C	2G	4c]	0r
.	.	4B	.
2D	2F	2A	.
1E	1G	2c	.
.	.	2B	.
=130	=130	=130	=130
1.D	0A	2.d	1r
.	.	4e	.
.	.	2f	2r
2C	.	[2e	2e
=131	=131	=131	=131
1D	[0A	2e]	2.f
.	.	2d	.
.	.	.	4g
2AA	.	2e	1a
[2D	.	[2f	.
=132	=132	=132	=132
2D]	0A]	2f]	2d
2C	.	2e	2e
1D	.	1d	1f
=133	=133	=133	=133
00AAl	00Al	00cl	00el
==	==	==	==
*-	*-	*-	*-
!!!system-decoration: [*]
!!!RDF**kern: i = editorial accidental
!!!RDF**kern: l = terminal long
!!!ENC: Benjamin Ory
!!!END: 2021/1/13
!!!EED: Benjamin Ory
!!!EEV: 2021/05/15
!!!YEC: Copyright 2021 Benjamin Ory, All Rights Reserved
!!!ONB: Translated from MusicXML on 2021/05/15